source/renderer/app/assets/images/hardware-wallet/ledger-cropped.inline.svg

<?xml version="1.0" encoding="UTF-8"?>
<svg width="500px" height="156px" viewBox="0 0 500 156" version="1.1" xmlns="http://www.w3.org/2000/svg" xmlns:xlink="http://www.w3.org/1999/xlink">
    <g id="Page-1" stroke="none" stroke-width="1" fill="none" fill-rule="evenodd">
        <g id="hardware-wallet-connect" transform="translate(-838.000000, -769.000000)" fill="#5E6066" fill-rule="nonzero">
            <g id="info-1" transform="translate(168.000000, 168.000000)">
                <g id="ledger-cropped" transform="translate(670.000000, 601.000000)">
                    <path d="M113,0 C114.104569,-2.02906125e-16 115,0.8954305 115,2 L115,6 L261,6 L261,2 C261,0.8954305 261.895431,2.02906125e-16 263,0 L312,0 C313.104569,-2.02906125e-16 314,0.8954305 314,2 L314,6 L496,6 C498.209139,6 500,7.790861 500,10 C500,12.1421954 498.316032,13.8910789 496.19964,13.9951047 L496,14 L420,14 C382.996922,14 353,43.9969218 353,81 C353,117.633047 382.399983,147.399361 418.892032,147.991024 L420,148 L496,148 C498.209139,148 500,149.790861 500,152 C500,154.142195 498.316032,155.891079 496.19964,155.995105 L496,156 L20,156 C9.06936433,156 0.186774951,147.231271 0,136.344489 L0,26 C0,15.0693643 8.76872859,6.18677495 19.6555106,6.00290706 L20,6 L62,6 L62,2 C62,0.8954305 62.8954305,2.02906125e-16 64,0 L113,0 Z M386.261695,13.9987834 L20,14 C13.4745433,14 8.16560725,19.2085444 8.00379986,25.6950252 L8,26 L8,136 C8,142.525457 13.2085444,147.834393 19.6950252,147.9962 L20,148 L386.263664,148.00221 C361.78691,135.653643 345,110.287218 345,81 C345,51.7135675 361.78601,26.3477175 386.261695,13.9987834 Z M294,42 C297.313708,42 300,44.6862915 300,48 L300,48 L300,114 C300,117.313708 297.313708,120 294,120 L294,120 L82,120 C78.6862915,120 76,117.313708 76,114 L76,114 L76,48 C76,44.6862915 78.6862915,42 82,42 L82,42 Z M420,42 C441.539105,42 459,59.4608948 459,81 C459,102.539105 441.539105,120 420,120 C398.460895,120 381,102.539105 381,81 C381,59.4608948 398.460895,42 420,42 Z M294,46 L82,46 C80.8954305,46 80,46.8954305 80,48 L80,48 L80,114 C80,115.104569 80.8954305,116 82,116 L82,116 L294,116 C295.104569,116 296,115.104569 296,114 L296,114 L296,48 C296,46.8954305 295.104569,46 294,46 L294,46 Z M420,46 C400.670034,46 385,61.6700338 385,81 C385,100.329966 400.670034,116 420,116 C439.329966,116 455,100.329966 455,81 C455,61.6700338 439.329966,46 420,46 Z" id="Combined-Shape"></path>
                </g>
            </g>
        </g>
    </g>
</svg>

<svg xmlns="http://www.w3.org/2000/svg" xmlns:xlink="http://www.w3.org/1999/xlink" width="500" height="180" viewBox="0 0 500 180">
    <defs>
        <filter id="prefix__a" width="235.8%" height="1300%" x="-67.9%" y="-600%" filterUnits="objectBoundingBox">
            <feMorphology in="SourceAlpha" operator="dilate" radius="4" result="shadowSpreadOuter1"/>
            <feOffset in="shadowSpreadOuter1" result="shadowOffsetOuter1"/>
            <feGaussianBlur in="shadowOffsetOuter1" result="shadowBlurOuter1" stdDeviation="8"/>
            <feColorMatrix in="shadowBlurOuter1" values="0 0 0 0 0.176470588 0 0 0 0 0.752941176 0 0 0 0 0.423529412 0 0 0 0.5 0"/>
        </filter>
        <path id="prefix__b" d="M263 0h49c1.105 0 2 .895 2 2v4h-53V2c0-1.105.895-2 2-2z"/>
    </defs>
    <g fill="none" fill-rule="evenodd" transform="translate(0 24)">
        <path fill="#5E6066" fill-rule="nonzero" d="M113 0c1.105 0 2 .895 2 2v4h146V2c0-1.105.895-2 2-2h49c1.105 0 2 .895 2 2v4h182c2.21 0 4 1.79 4 4 0 2.142-1.684 3.891-3.8 3.995L496 14h-76c-37.003 0-67 29.997-67 67 0 36.633 29.4 66.4 65.892 66.991L420 148h76c2.21 0 4 1.79 4 4 0 2.142-1.684 3.891-3.8 3.995l-.2.005H20c-10.93 0-19.813-8.769-20-19.656V26C0 15.07 8.769 6.187 19.656 6.003L20 6h42V2c0-1.105.895-2 2-2h49zm273.262 13.999L20 14c-6.525 0-11.834 5.209-11.996 11.695L8 26v110c0 6.525 5.209 11.834 11.695 11.996L20 148l366.264.002C361.787 135.654 345 110.287 345 81c0-29.286 16.786-54.652 41.262-67.001zM294 42c3.314 0 6 2.686 6 6v66c0 3.314-2.686 6-6 6H82c-3.314 0-6-2.686-6-6V48c0-3.314 2.686-6 6-6zm126 0c21.54 0 39 17.46 39 39s-17.46 39-39 39-39-17.46-39-39 17.46-39 39-39zm-126 4H82c-1.105 0-2 .895-2 2v66c0 1.105.895 2 2 2h212c1.105 0 2-.895 2-2V48c0-1.105-.895-2-2-2zm126 0c-19.33 0-35 15.67-35 35s15.67 35 35 35 35-15.67 35-35-15.67-35-35-35z"/>
        <use fill="#000" filter="url(#prefix__a)" xlink:href="#prefix__b"/>
        <use fill="#2DC06C" xlink:href="#prefix__b"/>
    </g>
</svg>
